img/soc-icons/viber.svg

<svg width="48" height="48" viewBox="0 0 48 48" fill="none" xmlns="http://www.w3.org/2000/svg">
<g clip-path="url(#clip0_5_75)">
<circle cx="24" cy="24" r="22" fill="#665CAC"/>
<path d="M24.0005 2.38419e-07C10.7458 2.38419e-07 0 10.7441 0 23.999C0 37.2541 10.7458 48 24.0005 48C37.2542 48 48 37.2541 48 23.999C48 10.7441 37.2542 2.38419e-07 24.0005 2.38419e-07ZM22.8769 12.6785C23.0723 12.4996 23.2095 12.4748 23.8872 12.4955C24.2405 12.508 24.7603 12.5495 25.043 12.5827C26.4731 12.7615 27.629 13.1066 28.897 13.726C30.1442 14.3372 30.9424 14.9151 31.9984 15.967C32.9879 16.9606 33.5366 17.7132 34.1187 18.8814C34.9294 20.5111 35.3909 22.4485 35.4699 24.5814C35.4991 25.3088 35.4782 25.4711 35.312 25.6789C34.996 26.0822 34.3016 26.0157 34.0647 25.5625C33.9899 25.4128 33.9691 25.2841 33.9441 24.7019C33.9025 23.8081 33.8402 23.2302 33.7155 22.5401C33.225 19.8335 31.9278 17.6715 29.8574 16.1209C28.132 14.8237 26.3485 14.1918 24.0121 14.0546C23.2221 14.0089 23.085 13.9797 22.9063 13.8425C22.5734 13.5806 22.5568 12.9653 22.8769 12.6785ZM27.8326 18.0333C26.9969 17.5345 25.7621 17.1644 24.6355 17.073C24.228 17.0397 24.0035 16.9566 23.8497 16.7778C23.6128 16.5075 23.5878 16.1417 23.7873 15.8382C24.0036 15.5015 24.3361 15.4474 25.3298 15.5971C27.8534 15.9671 29.8074 17.1396 31.0879 19.0437C31.8071 20.1163 32.2562 21.3761 32.41 22.7272C32.464 23.222 32.464 24.1242 32.4058 24.2739C32.3517 24.4152 32.177 24.6065 32.0274 24.6854C31.8653 24.7685 31.5203 24.7602 31.329 24.6605C31.0088 24.4983 30.9132 24.2405 30.9132 23.5421C30.9132 22.4653 30.6347 21.3303 30.1524 20.4488C29.6037 19.4428 28.8055 18.6113 27.8326 18.0333ZM29.2378 23.5753C28.9925 23.7998 28.5394 23.8082 28.2649 23.5962C28.0653 23.4465 28.003 23.2885 27.9572 22.8603C27.9032 22.2907 27.8034 21.8916 27.6331 21.5215C27.2672 20.7358 26.6228 20.3284 25.5335 20.1953C25.0221 20.1329 24.8682 20.0748 24.702 19.8793C24.3985 19.5175 24.5149 18.9314 24.9348 18.7152C25.0929 18.6362 25.1593 18.6279 25.5085 18.6487C25.7247 18.6612 26.0449 18.6985 26.2154 18.7361C27.0343 18.9106 27.6622 19.2224 28.1985 19.7255C28.8886 20.3783 29.267 21.1682 29.4332 22.3032C29.5454 23.0432 29.4997 23.3342 29.2378 23.5753ZM35.449 34.4973C35.1413 35.2913 33.944 36.7797 33.1083 37.4158C32.3517 37.9895 31.8154 38.2098 31.1086 38.2432C30.5266 38.2722 30.2854 38.2223 29.5412 37.9147C23.7041 35.5075 19.0437 31.9155 15.3435 26.9804C13.4104 24.4027 11.9385 21.7295 10.9324 18.9564C10.3463 17.3392 10.3171 16.6365 10.7994 15.8092C11.0074 15.4599 11.8928 14.5951 12.5373 14.1129C13.61 13.3146 14.1047 13.0194 14.4996 12.9363C14.7698 12.8781 15.2396 12.9238 15.539 13.0319C15.6845 13.0817 15.9089 13.1981 16.0379 13.2813C16.8277 13.8052 19.0271 16.6198 19.7463 18.025C20.1578 18.8274 20.295 19.4219 20.1662 19.8627C20.033 20.3366 19.8128 20.5861 18.8274 21.3802C18.4325 21.7003 18.0624 22.0288 18.0043 22.1161C17.8546 22.3323 17.734 22.7563 17.734 23.0557C17.7382 23.75 18.1873 25.0097 18.7776 25.9785C19.2349 26.731 20.0539 27.6954 20.8646 28.4356C21.8166 29.3088 22.6565 29.9031 23.6043 30.373C24.8224 30.9799 25.5666 31.1338 26.1114 30.8802C26.2485 30.8178 26.394 30.7347 26.4398 30.6973C26.4813 30.6599 26.8015 30.2691 27.1507 29.8368C27.8242 28.9885 27.9781 28.8515 28.4395 28.6935C29.0257 28.4939 29.6244 28.5479 30.2272 28.8556C30.6845 29.0926 31.6823 29.7121 32.3267 30.161C33.1748 30.7556 34.9874 32.2358 35.2328 32.5309C35.6653 33.063 35.74 33.7446 35.449 34.4973Z" fill="white"/>
</g>
<defs>
<clipPath id="clip0_5_75">
<rect width="48" height="48" fill="white"/>
</clipPath>
</defs>
</svg>

<svg width="48" height="48" fill="none" xmlns="http://www.w3.org/2000/svg">
    <g clip-path="url(#a)">
        <circle cx="24" cy="24" r="22" fill="#665CAC"/>
        <path d="M24 0C10.746 0 0 10.744 0 23.999 0 37.254 10.746 48 24 48s24-10.746 24-24.001S37.254 0 24 0Zm-1.123 12.678c.195-.178.332-.203 1.01-.183.354.013.873.055 1.156.088 1.43.178 2.586.524 3.854 1.143 1.247.611 2.045 1.19 3.101 2.241.99.994 1.539 1.746 2.12 2.914.811 1.63 1.273 3.567 1.352 5.7.03.728.008.89-.158 1.098-.316.403-1.01.337-1.247-.116-.075-.15-.096-.279-.12-.861a15.09 15.09 0 0 0-.23-2.162c-.49-2.706-1.787-4.868-3.858-6.42-1.725-1.296-3.508-1.928-5.845-2.065-.79-.046-.927-.075-1.106-.213-.333-.261-.35-.877-.03-1.164Zm4.956 5.355c-.836-.498-2.07-.869-3.197-.96-.408-.033-.633-.116-.786-.295a.757.757 0 0 1-.063-.94c.217-.336.55-.39 1.543-.24 2.523.37 4.477 1.542 5.758 3.446.72 1.072 1.168 2.332 1.322 3.683.054.495.054 1.397-.004 1.547a.946.946 0 0 1-.379.411c-.162.084-.507.075-.698-.024-.32-.163-.416-.42-.416-1.119 0-1.077-.278-2.212-.76-3.093a6.319 6.319 0 0 0-2.32-2.416Zm1.405 5.542c-.245.225-.699.233-.973.021-.2-.15-.262-.308-.308-.736-.054-.57-.154-.968-.324-1.338-.366-.786-1.01-1.194-2.1-1.327-.51-.062-.665-.12-.831-.316a.775.775 0 0 1 .233-1.164c.158-.079.224-.087.574-.066.216.012.536.05.706.087.82.175 1.447.486 1.983.99.69.652 1.069 1.442 1.235 2.577.112.74.067 1.031-.195 1.272Zm6.211 10.922c-.308.794-1.505 2.283-2.34 2.919-.757.574-1.294.794-2 .827-.582.03-.824-.02-1.568-.328-5.837-2.407-10.497-6-14.197-10.935-1.934-2.577-3.405-5.25-4.412-8.024-.586-1.617-.615-2.32-.133-3.147.208-.35 1.094-1.214 1.738-1.696 1.073-.798 1.568-1.094 1.963-1.177.27-.058.74-.012 1.039.096.146.05.37.166.499.25.79.523 2.99 3.338 3.708 4.743.412.802.549 1.397.42 1.838-.133.474-.353.723-1.339 1.517-.395.32-.765.649-.823.736-.15.216-.27.64-.27.94.004.694.453 1.954 1.044 2.922.457.753 1.276 1.717 2.087 2.458.952.873 1.792 1.467 2.74 1.937 1.217.607 1.962.76 2.506.507a2.02 2.02 0 0 0 .329-.183c.041-.037.361-.428.71-.86.674-.849.828-.985 1.29-1.143.586-.2 1.184-.146 1.787.162.457.237 1.455.856 2.1 1.305.848.595 2.66 2.075 2.906 2.37.432.532.507 1.214.216 1.966Z" fill="#fff"/>
    </g>
    <defs>
        <clipPath id="a">
            <path fill="#fff" d="M0 0h48v48H0z"/>
        </clipPath>
    </defs>
</svg>
